X: 39366
T: Tamony's
R: hornpipe
M: 4/4
K: Gmajor
|:BA|(3GBG DF GBdB|ceAg fdaf|gdBd edBG|FGAB cAFA|
(3GBG DF GBdB|cBAg fdaf|gdBG FAdc|(3BcB (3ABA G2:|
|:Bc|(3ded Bd GBdg|(3ege ce Afef|gd^cd edBG|FGAB (3BcB ce|
(3ded Bd GBdg|(3ege ce Afef|gdBG FAdc|(3BcB (3ABA G2:|

